portal/assets/img/component/radio-button/spacing-radio-button-1.svg

<svg width="103" height="32" viewBox="0 0 103 32" fill="none" xmlns="http://www.w3.org/2000/svg">
<rect x="24" y="4" width="16" height="24" fill="#E8178A" fill-opacity="0.24"/>
<circle cx="12" cy="16" r="11.5" fill="white" stroke="#667085"/>
<circle cx="11.9999" cy="15.9999" r="4" fill="white"/>
<path d="M51.2273 16.1818C51.2273 17.4091 51.0057 18.4697 50.5625 19.3636C50.1193 20.2576 49.5114 20.947 48.7386 21.4318C47.9659 21.9167 47.0833 22.1591 46.0909 22.1591C45.0985 22.1591 44.2159 21.9167 43.4432 21.4318C42.6705 20.947 42.0625 20.2576 41.6193 19.3636C41.1761 18.4697 40.9545 17.4091 40.9545 16.1818C40.9545 14.9545 41.1761 13.8939 41.6193 13C42.0625 12.1061 42.6705 11.4167 43.4432 10.9318C44.2159 10.447 45.0985 10.2045 46.0909 10.2045C47.0833 10.2045 47.9659 10.447 48.7386 10.9318C49.5114 11.4167 50.1193 12.1061 50.5625 13C51.0057 13.8939 51.2273 14.9545 51.2273 16.1818ZM49.8636 16.1818C49.8636 15.1742 49.6951 14.3239 49.358 13.6307C49.0246 12.9375 48.572 12.4129 48 12.0568C47.4318 11.7008 46.7955 11.5227 46.0909 11.5227C45.3864 11.5227 44.7481 11.7008 44.1761 12.0568C43.608 12.4129 43.1553 12.9375 42.8182 13.6307C42.4848 14.3239 42.3182 15.1742 42.3182 16.1818C42.3182 17.1894 42.4848 18.0398 42.8182 18.733C43.1553 19.4261 43.608 19.9508 44.1761 20.3068C44.7481 20.6629 45.3864 20.8409 46.0909 20.8409C46.7955 20.8409 47.4318 20.6629 48 20.3068C48.572 19.9508 49.0246 19.4261 49.358 18.733C49.6951 18.0398 49.8636 17.1894 49.8636 16.1818ZM53.4148 25.2727V13.2727H54.7102V14.6591H54.8693C54.9678 14.5076 55.1042 14.3144 55.2784 14.0795C55.4564 13.8409 55.7102 13.6288 56.0398 13.4432C56.3731 13.2538 56.8239 13.1591 57.392 13.1591C58.1269 13.1591 58.7746 13.3428 59.3352 13.7102C59.8958 14.0777 60.3333 14.5985 60.6477 15.2727C60.9621 15.947 61.1193 16.7424 61.1193 17.6591C61.1193 18.5833 60.9621 19.3845 60.6477 20.0625C60.3333 20.7367 59.8977 21.2595 59.3409 21.6307C58.7841 21.9981 58.142 22.1818 57.4148 22.1818C56.8542 22.1818 56.4053 22.089 56.0682 21.9034C55.7311 21.714 55.4716 21.5 55.2898 21.2614C55.108 21.0189 54.9678 20.8182 54.8693 20.6591H54.7557V25.2727H53.4148ZM54.733 17.6364C54.733 18.2955 54.8295 18.8769 55.0227 19.3807C55.2159 19.8807 55.4981 20.2727 55.8693 20.5568C56.2405 20.8371 56.6951 20.9773 57.233 20.9773C57.7936 20.9773 58.2614 20.8295 58.6364 20.5341C59.0152 20.2348 59.2992 19.8333 59.4886 19.3295C59.6818 18.822 59.7784 18.2576 59.7784 17.6364C59.7784 17.0227 59.6837 16.4697 59.4943 15.9773C59.3087 15.4811 59.0265 15.089 58.6477 14.8011C58.2727 14.5095 57.8011 14.3636 57.233 14.3636C56.6875 14.3636 56.2292 14.5019 55.858 14.7784C55.4867 15.0511 55.2064 15.4337 55.017 15.9261C54.8277 16.4148 54.733 16.9848 54.733 17.6364ZM66.9602 13.2727V14.4091H62.4375V13.2727H66.9602ZM63.7557 11.1818H65.0966V19.5C65.0966 19.8788 65.1515 20.1629 65.2614 20.3523C65.375 20.5379 65.5189 20.6629 65.6932 20.7273C65.8712 20.7879 66.0587 20.8182 66.2557 20.8182C66.4034 20.8182 66.5246 20.8106 66.6193 20.7955C66.714 20.7765 66.7898 20.7614 66.8466 20.75L67.1193 21.9545C67.0284 21.9886 66.9015 22.0227 66.7386 22.0568C66.5758 22.0947 66.3693 22.1136 66.1193 22.1136C65.7405 22.1136 65.3693 22.0322 65.0057 21.8693C64.6458 21.7064 64.3466 21.4583 64.108 21.125C63.8731 20.7917 63.7557 20.3712 63.7557 19.8636V11.1818ZM68.9773 22V13.2727H70.3182V22H68.9773ZM69.6591 11.8182C69.3977 11.8182 69.1723 11.7292 68.983 11.5511C68.7973 11.3731 68.7045 11.1591 68.7045 10.9091C68.7045 10.6591 68.7973 10.4451 68.983 10.267C69.1723 10.089 69.3977 10 69.6591 10C69.9205 10 70.1439 10.089 70.3295 10.267C70.5189 10.4451 70.6136 10.6591 70.6136 10.9091C70.6136 11.1591 70.5189 11.3731 70.3295 11.5511C70.1439 11.7292 69.9205 11.8182 69.6591 11.8182ZM76.3196 22.1818C75.5317 22.1818 74.8404 21.9943 74.2457 21.6193C73.6548 21.2443 73.1927 20.7197 72.8594 20.0455C72.5298 19.3712 72.3651 18.5833 72.3651 17.6818C72.3651 16.7727 72.5298 15.9792 72.8594 15.3011C73.1927 14.6231 73.6548 14.0966 74.2457 13.7216C74.8404 13.3466 75.5317 13.1591 76.3196 13.1591C77.1075 13.1591 77.7969 13.3466 78.3878 13.7216C78.9825 14.0966 79.4446 14.6231 79.7741 15.3011C80.1075 15.9792 80.2741 16.7727 80.2741 17.6818C80.2741 18.5833 80.1075 19.3712 79.7741 20.0455C79.4446 20.7197 78.9825 21.2443 78.3878 21.6193C77.7969 21.9943 77.1075 22.1818 76.3196 22.1818ZM76.3196 20.9773C76.9181 20.9773 77.4105 20.8239 77.7969 20.517C78.1832 20.2102 78.4692 19.8068 78.6548 19.3068C78.8404 18.8068 78.9332 18.2652 78.9332 17.6818C78.9332 17.0985 78.8404 16.5549 78.6548 16.0511C78.4692 15.5473 78.1832 15.1402 77.7969 14.8295C77.4105 14.5189 76.9181 14.3636 76.3196 14.3636C75.7211 14.3636 75.2287 14.5189 74.8423 14.8295C74.456 15.1402 74.17 15.5473 73.9844 16.0511C73.7988 16.5549 73.706 17.0985 73.706 17.6818C73.706 18.2652 73.7988 18.8068 73.9844 19.3068C74.17 19.8068 74.456 20.2102 74.8423 20.517C75.2287 20.8239 75.7211 20.9773 76.3196 20.9773ZM83.6619 16.75V22H82.321V13.2727H83.6165V14.6364H83.7301C83.9347 14.1932 84.2453 13.8371 84.6619 13.5682C85.0786 13.2955 85.6165 13.1591 86.2756 13.1591C86.8665 13.1591 87.3835 13.2803 87.8267 13.5227C88.2699 13.7614 88.6146 14.125 88.8608 14.6136C89.107 15.0985 89.2301 15.7121 89.2301 16.4545V22H87.8892V16.5455C87.8892 15.8598 87.7112 15.3258 87.3551 14.9432C86.9991 14.5568 86.5104 14.3636 85.8892 14.3636C85.4612 14.3636 85.0786 14.4564 84.7415 14.642C84.4081 14.8277 84.1449 15.0985 83.9517 15.4545C83.7585 15.8106 83.6619 16.2424 83.6619 16.75ZM100.249 10.3636V22H98.8395V11.8409H98.7713L95.9304 13.7273V12.2955L98.8395 10.3636H100.249Z" fill="#344054"/>
</svg>

<svg width="103" height="32" viewBox="0 0 103 32" fill="none" xmlns="http://www.w3.org/2000/svg"><path fill="#E8178A" fill-opacity=".24" d="M24 4h16v24H24z"/><circle cx="12" cy="16" r="11.5" fill="#fff" stroke="#667085"/><circle cx="12" cy="16" r="4" fill="#fff"/><path d="M51.227 16.182c0 1.227-.221 2.288-.664 3.182-.444.894-1.052 1.583-1.824 2.068-.773.485-1.656.727-2.648.727-.992 0-1.875-.242-2.648-.727-.773-.485-1.38-1.174-1.824-2.068-.443-.894-.664-1.955-.664-3.182 0-1.227.221-2.288.664-3.182.444-.894 1.051-1.583 1.824-2.068.773-.485 1.656-.728 2.648-.728.992 0 1.875.243 2.648.728.772.485 1.38 1.174 1.824 2.068.443.894.664 1.954.664 3.182Zm-1.363 0c0-1.008-.169-1.858-.506-2.551-.333-.694-.786-1.218-1.358-1.574a3.522 3.522 0 0 0-1.91-.534 3.55 3.55 0 0 0-1.914.534c-.568.356-1.02.88-1.358 1.574-.333.693-.5 1.543-.5 2.55 0 1.008.167 1.859.5 2.552.337.693.79 1.218 1.358 1.574a3.55 3.55 0 0 0 1.915.534A3.52 3.52 0 0 0 48 20.307c.572-.356 1.025-.88 1.358-1.574.337-.693.506-1.544.506-2.551Zm3.55 9.09v-12h1.296v1.387h.16c.098-.151.234-.345.408-.58.178-.238.432-.45.762-.636.333-.19.784-.284 1.352-.284.735 0 1.383.184 1.943.551.56.368.998.888 1.313 1.563.314.674.471 1.47.471 2.386 0 .924-.157 1.726-.471 2.404-.315.674-.75 1.197-1.307 1.568-.557.367-1.199.55-1.926.55-.56 0-1.01-.092-1.347-.278-.337-.189-.596-.403-.778-.642a8.63 8.63 0 0 1-.42-.602h-.114v4.614h-1.341Zm1.319-7.636c0 .66.097 1.24.29 1.745.193.5.475.892.846 1.176.371.28.826.42 1.364.42.56 0 1.028-.148 1.403-.443.38-.3.663-.7.853-1.204.193-.508.29-1.072.29-1.694 0-.613-.095-1.166-.285-1.659-.185-.496-.468-.888-.846-1.176-.375-.292-.847-.437-1.415-.437-.545 0-1.004.138-1.375.414-.371.273-.652.656-.841 1.148-.19.489-.284 1.059-.284 1.71Zm12.227-4.363v1.136h-4.522v-1.136h4.522Zm-3.204-2.091h1.34V19.5c0 .379.055.663.165.852.114.186.258.31.432.375.178.06.366.091.563.091.147 0 .269-.007.363-.023l.228-.045.272 1.204c-.09.035-.218.069-.38.103a2.8 2.8 0 0 1-.62.057c-.379 0-.75-.082-1.113-.245a2.212 2.212 0 0 1-.898-.744c-.235-.333-.352-.754-.352-1.261v-8.682ZM68.977 22v-8.727h1.341V22h-1.34Zm.682-10.182a.953.953 0 0 1-.676-.267.858.858 0 0 1-.279-.642c0-.25.093-.464.279-.642a.953.953 0 0 1 .676-.267c.261 0 .485.089.67.267a.85.85 0 0 1 .285.642.85.85 0 0 1-.285.642.933.933 0 0 1-.67.267Zm6.66 10.364c-.787 0-1.479-.188-2.073-.563-.591-.375-1.053-.9-1.387-1.573-.33-.675-.494-1.463-.494-2.364 0-.91.165-1.703.494-2.38.334-.679.796-1.205 1.387-1.58.594-.375 1.286-.563 2.074-.563.788 0 1.477.188 2.068.563.594.375 1.057.901 1.386 1.58.334.677.5 1.47.5 2.38 0 .901-.166 1.69-.5 2.364a3.769 3.769 0 0 1-1.386 1.573c-.591.375-1.28.563-2.068.563Zm0-1.205c.6 0 1.091-.153 1.478-.46a2.72 2.72 0 0 0 .858-1.21c.185-.5.278-1.042.278-1.625s-.093-1.127-.278-1.63a2.75 2.75 0 0 0-.858-1.223c-.386-.31-.879-.465-1.477-.465-.599 0-1.091.155-1.478.465a2.75 2.75 0 0 0-.858 1.222 4.681 4.681 0 0 0-.278 1.63c0 .584.093 1.126.278 1.626.186.5.472.903.858 1.21.387.307.88.46 1.478.46Zm7.343-4.227V22H82.32v-8.727h1.296v1.363h.113c.205-.443.515-.799.932-1.068.417-.272.954-.409 1.614-.409.59 0 1.108.121 1.55.364.444.238.789.602 1.035 1.09.246.486.37 1.1.37 1.841V22h-1.342v-5.454c0-.686-.178-1.22-.534-1.603-.356-.386-.845-.58-1.466-.58-.428 0-.81.093-1.147.279a1.993 1.993 0 0 0-.79.813c-.194.356-.29.787-.29 1.295Zm16.587-6.386V22h-1.41V11.84h-.068l-2.84 1.887v-1.431l2.909-1.932h1.409Z" fill="#344054"/></svg>
